Numix/scalable/status/network-idle-symbolic.svg

<?xml version="1.0" encoding="UTF-8" standalone="no"?>
<svg
   xmlns:osb="http://www.openswatchbook.org/uri/2009/osb"
   xmlns:dc="http://purl.org/dc/elements/1.1/"
   xmlns:cc="http://creativecommons.org/ns#"
   xmlns:rdf="http://www.w3.org/1999/02/22-rdf-syntax-ns#"
   xmlns:svg="http://www.w3.org/2000/svg"
   xmlns="http://www.w3.org/2000/svg"
   xmlns:sodipodi="http://sodipodi.sourceforge.net/DTD/sodipodi-0.dtd"
   xmlns:inkscape="http://www.inkscape.org/namespaces/inkscape"
   width="16"
   viewBox="0 0 16 16"
   height="16"
   id="svg2"
   version="1.1"
   inkscape:version="0.91 r"
   sodipodi:docname="network-idle-symbolic.svg">
  <metadata
     id="metadata10">
    <rdf:RDF>
      <cc:Work
         rdf:about="">
        <dc:format>image/svg+xml</dc:format>
        <dc:type
           rdf:resource="http://purl.org/dc/dcmitype/StillImage" />
        <dc:title />
      </cc:Work>
    </rdf:RDF>
  </metadata>
  <defs
     id="defs8">
    <linearGradient
       osb:paint="solid"
       id="linearGradient5606">
      <stop
         style="stop-color:#000000;stop-opacity:1;"
         offset="0"
         id="stop5608" />
    </linearGradient>
  </defs>
  <sodipodi:namedview
     pagecolor="#ffffff"
     bordercolor="#666666"
     borderopacity="1"
     objecttolerance="10"
     gridtolerance="10"
     guidetolerance="10"
     inkscape:pageopacity="0"
     inkscape:pageshadow="2"
     inkscape:window-width="1920"
     inkscape:window-height="1056"
     id="namedview6"
     showgrid="true"
     inkscape:zoom="40.349281"
     inkscape:cx="9.7611896"
     inkscape:cy="7.7186718"
     inkscape:window-x="0"
     inkscape:window-y="24"
     inkscape:window-maximized="1"
     inkscape:current-layer="svg2">
    <inkscape:grid
       type="xygrid"
       id="grid4138" />
  </sodipodi:namedview>
  <path
     style="color:#bebebe;opacity:0.4;fill:#bebebe;fill-opacity:1"
     d="M 2,1 C 0.79661025,1 0,1.7966102 0,3 l 0,10 c 0,1.202426 0.79529735,2 2,2 4,0 8,0 12,0 1.204703,0 2,-0.797574 2,-2 L 16,3 C 16,1.7966102 15.20339,1 14,1 10,1 6,1 2,1 Z m 1,2 c 3.3333333,0 6.6666667,0 10,0 1,0 1,0.2033898 1,2 l 0,4 -2,0 0,2 -1,0 0,2 C 9,13 7,13 5,13 L 5,11 4,11 4,9 2,9 2,5 C 2,3.2033898 2,3 3,3 Z"
     id="path6104"
     inkscape:connector-curvature="0"
     sodipodi:nodetypes="cssccssccccsccccccccccsc" />
  <g
     id="layer1-4"
     inkscape:label="places"
     style="display:inline"
     transform="translate(-109.60907,-183.22293)" />
  <g
     id="layer14-3"
     inkscape:label="mimetypes"
     style="display:inline"
     transform="translate(-350.60927,433.77707)" />
  <g
     id="layer15-6"
     inkscape:label="emblems"
     style="display:inline"
     transform="translate(-350.60927,433.77707)" />
  <g
     id="g71291-0"
     inkscape:label="emotes"
     style="display:inline"
     transform="translate(-350.60927,433.77707)" />
  <g
     id="layer2-1"
     inkscape:label="categories"
     style="display:inline"
     transform="translate(-109.60907,-33.222935)" />
  <g
     id="g6058-1"
     inkscape:label="apps"
     style="display:inline"
     transform="translate(-109.60907,-33.222935)" />
  <g
     id="layer12-9"
     inkscape:label="actions"
     style="display:inline"
     transform="translate(-350.60927,433.77707)" />
</svg>

<svg xmlns="http://www.w3.org/2000/svg" viewBox="0 0 16 16">
 <path d="m 2 1 c -1.203 0 -2 0.797 -2 2 l 0 10 c 0 1.202 0.795 2 2 2 4 0 8 0 12 0 1.205 0 2 -0.798 2 -2 l 0 -10 c 0 -1.203 -0.797 -2 -2 -2 -4 0 -8 0 -12 0 m 1 2 c 3.333 0 6.667 0 10 0 1 0 1 0.203 1 2 l 0 4 -2 0 0 2 -1 0 0 2 c -2 0 -4 0 -6 0 l 0 -2 -1 0 0 -2 -2 0 0 -4 c 0 -1.797 0 -2 1 -2" style="fill:#bebebe;opacity:0.4;fill-opacity:1;color:#bebebe"/>
</svg>
